img/image/features5.svg

<svg width="70" height="76" viewBox="0 0 70 76" fill="none" xmlns="http://www.w3.org/2000/svg">
<g opacity="0.8">
<path d="M13.3806 72.8284H6.71726C5.59382 72.8284 4.68311 71.8106 4.68311 70.555V62.0418H15.4148V70.555C15.4148 71.8106 14.5041 72.8284 13.3806 72.8284Z" stroke="#E5EEF7" stroke-width="2" stroke-miterlimit="10" stroke-linecap="round" stroke-linejoin="round"/>
<path d="M63.2832 72.8284H56.6199C55.4964 72.8284 54.5857 71.8106 54.5857 70.555V62.0418H65.3174V70.555C65.3174 71.8106 64.4067 72.8284 63.2832 72.8284Z" stroke="#E5EEF7" stroke-width="2" stroke-miterlimit="10" stroke-linecap="round" stroke-linejoin="round"/>
<path d="M5.42885 35.927H7.69343C9.58704 35.927 11.1222 37.4521 11.1222 39.3333V42.7395H5.42885C3.53524 42.7395 2.00024 41.2145 2.00024 39.3333C2.00024 37.4521 3.53524 35.927 5.42885 35.927Z" stroke="#E5EEF7" stroke-width="2" stroke-miterlimit="10" stroke-linecap="round" stroke-linejoin="round"/>
<path d="M64.5715 35.927H62.3069C60.4133 35.927 58.8782 37.4521 58.8782 39.3333V42.7395H64.5715C66.4651 42.7395 68.0001 41.2145 68.0001 39.3333C68.0001 37.4521 66.4651 35.927 64.5715 35.927Z" stroke="#E5EEF7" stroke-width="2" stroke-miterlimit="10" stroke-linecap="round" stroke-linejoin="round"/>
<path d="M54.0465 56.9324H65.3171V48.4167H54.0465C52.2697 48.4167 50.8293 50.0286 50.8293 52.0172V53.3319C50.8293 55.3205 52.2697 56.9324 54.0465 56.9324Z" stroke="#E5EEF7" stroke-width="2" stroke-miterlimit="10" stroke-linecap="round" stroke-linejoin="round"/>
<path d="M15.9537 56.9324H4.68311V48.4167H15.9537C17.7305 48.4167 19.1709 50.0286 19.1709 52.0172V53.3319C19.1709 55.3205 17.7305 56.9324 15.9537 56.9324Z" stroke="#E5EEF7" stroke-width="2" stroke-miterlimit="10" stroke-linecap="round" stroke-linejoin="round"/>
<path d="M42.9572 62.042C44.0452 62.042 44.9271 61.1124 44.9271 59.9656V56.738C44.9271 55.5913 44.0452 54.6617 42.9572 54.6617H27.0434C25.9554 54.6617 25.0735 55.5913 25.0735 56.738V59.9656C25.0735 61.1124 25.9554 62.042 27.0434 62.042" stroke="#E5EEF7" stroke-width="2" stroke-miterlimit="10" stroke-linecap="round" stroke-linejoin="round"/>
<path d="M48.8527 42.7398H60.4805C63.1406 42.7398 65.3171 45.0172 65.3171 47.801V62.042H33.1221" stroke="#E5EEF7" stroke-width="2" stroke-miterlimit="10" stroke-linecap="round" stroke-linejoin="round"/>
<path d="M28.727 62.042H4.68311V47.801C4.68311 45.0174 6.85013 42.7398 9.49894 42.7398H44.3903" stroke="#E5EEF7" stroke-width="2" stroke-miterlimit="10" stroke-linecap="round" stroke-linejoin="round"/>
<path d="M26.1465 27.4862C35.2868 26.1516 44.5975 26.8957 53.5479 29.7188C54.6722 30.0734 55.5676 31.0583 55.9309 32.3404L58.8781 42.7395" stroke="#E5EEF7" stroke-width="2" stroke-miterlimit="10" stroke-linecap="round" stroke-linejoin="round"/>
<path d="M11.1221 42.7395L14.0768 32.5306C14.4412 31.272 15.3388 30.3051 16.4662 29.9569C18.242 29.4083 20.0395 28.9378 21.8537 28.5467" stroke="#E5EEF7" stroke-width="2" stroke-miterlimit="10" stroke-linecap="round" stroke-linejoin="round"/>
<path d="M53.3017 4.43998C53.2482 4.13803 53.1098 3.86021 52.9045 3.64298C52.6992 3.42576 52.4366 3.27928 52.1512 3.22276C48.2526 2.45651 44.0757 3.66576 41.0599 6.85651C38.0441 10.0473 36.9012 14.4664 37.6254 18.5912C37.6789 18.8932 37.8173 19.171 38.0226 19.3882C38.2279 19.6054 38.4905 19.7518 38.7759 19.8083C42.6745 20.5747 46.8514 19.3655 49.8672 16.1747C52.883 12.984 54.0259 8.56477 53.3017 4.43998Z" stroke="#E5EEF7" stroke-width="2" stroke-miterlimit="10" stroke-linecap="round" stroke-linejoin="round"/>
<path d="M16.6984 4.43998C16.7519 4.13803 16.8903 3.86021 17.0956 3.64298C17.3009 3.42576 17.5635 3.27928 17.8489 3.22276C21.7475 2.45651 25.9244 3.66576 28.9402 6.85651C31.956 10.0473 33.0989 14.4664 32.3747 18.5912C32.3212 18.8932 32.1828 19.171 31.9775 19.3882C31.7722 19.6054 31.5096 19.7518 31.2242 19.8083C27.3256 20.5747 23.1487 19.3655 20.1329 16.1747C17.1171 12.984 15.9742 8.56477 16.6984 4.43998Z" stroke="#E5EEF7" stroke-width="2" stroke-miterlimit="10" stroke-linecap="round" stroke-linejoin="round"/>
<path d="M34.7318 26.844C34.7318 24.1587 33.8041 21.5776 32.143 19.6413L26.1465 12.6512" stroke="#E5EEF7" stroke-width="2" stroke-miterlimit="10" stroke-linecap="round" stroke-linejoin="round"/>
<path d="M34.7319 26.844C34.7319 24.1587 35.7176 21.5776 37.4826 19.6413L43.8539 12.6512" stroke="#E5EEF7" stroke-width="2" stroke-miterlimit="10" stroke-linecap="round" stroke-linejoin="round"/>
</g>
</svg>

<svg width="70" height="76" fill="none" xmlns="http://www.w3.org/2000/svg"><g opacity=".8" stroke="#E5EEF7" stroke-width="2" stroke-miterlimit="10" stroke-linecap="round" stroke-linejoin="round"><path d="M13.38 72.828H6.718c-1.123 0-2.034-1.017-2.034-2.273v-8.513h10.732v8.513c0 1.256-.91 2.273-2.034 2.273ZM63.283 72.828H56.62c-1.124 0-2.034-1.017-2.034-2.273v-8.513h10.731v8.513c0 1.256-.91 2.273-2.034 2.273ZM5.429 35.927h2.264c1.894 0 3.43 1.525 3.43 3.406v3.407H5.428C3.535 42.74 2 41.213 2 39.332c0-1.88 1.535-3.406 3.429-3.406ZM64.572 35.927h-2.265c-1.894 0-3.429 1.525-3.429 3.406v3.407h5.694c1.893 0 3.428-1.526 3.428-3.407 0-1.88-1.535-3.406-3.428-3.406ZM54.047 56.932h11.27v-8.515h-11.27c-1.777 0-3.218 1.612-3.218 3.6v1.315c0 1.989 1.44 3.6 3.218 3.6ZM15.954 56.932H4.684v-8.515h11.27c1.776 0 3.217 1.612 3.217 3.6v1.315c0 1.989-1.44 3.6-3.217 3.6ZM42.957 62.042c1.088 0 1.97-.93 1.97-2.076v-3.228c0-1.147-.882-2.076-1.97-2.076H27.043c-1.088 0-1.97.93-1.97 2.076v3.228c0 1.146.882 2.076 1.97 2.076"/><path d="M48.853 42.74H60.48c2.66 0 4.837 2.277 4.837 5.061v14.241H33.122M28.727 62.042H4.683V47.801c0-2.784 2.167-5.061 4.816-5.061H44.39M26.146 27.486c9.14-1.334 18.451-.59 27.402 2.233 1.124.354 2.02 1.34 2.383 2.621l2.947 10.4M11.122 42.74l2.955-10.21c.364-1.258 1.262-2.225 2.39-2.573a63.81 63.81 0 0 1 5.387-1.41M53.302 4.44a1.555 1.555 0 0 0-.398-.797 1.416 1.416 0 0 0-.753-.42c-3.898-.766-8.075.443-11.091 3.634-3.016 3.19-4.159 7.61-3.435 11.734.054.302.192.58.398.797.205.217.467.364.753.42 3.898.767 8.075-.442 11.091-3.633s4.159-7.61 3.435-11.735ZM16.698 4.44c.054-.302.192-.58.398-.797.205-.217.468-.364.753-.42 3.898-.766 8.075.443 11.091 3.634 3.016 3.19 4.159 7.61 3.435 11.734-.054.302-.192.58-.398.797a1.416 1.416 0 0 1-.753.42c-3.898.767-8.075-.442-11.091-3.633s-4.159-7.61-3.435-11.735Z"/><path d="M34.732 26.844c0-2.685-.928-5.266-2.589-7.203l-5.997-6.99M34.732 26.844c0-2.685.986-5.266 2.75-7.203l6.372-6.99"/></g></svg>
